Papirus/32x32/apps/multiwinia.svg

<svg width="32" height="32" version="1.1" xmlns="http://www.w3.org/2000/svg">
 <g>
  <path d="m14 2.767578a3.0003 3.0003 0 0 0-3 3v1h-4a3.0003 3.0003 0 0 0-3 3v4a3.0003 3.0003 0 0 0 3 3h0.1738281a3.0003 3.0003 0 0 0-0.1738281 1v10a3.0003 3.0003 0 0 0 3 3h4a3.0003 3.0003 0 0 0 2-0.767578 3.0003 3.0003 0 0 0 2 0.767578h4a3.0003 3.0003 0 0 0 3-3v-10a3.0003 3.0003 0 0 0-0.175781-1h0.175781a3.0003 3.0003 0 0 0 3-3v-4a3.0003 3.0003 0 0 0-3-3h-4v-1a3.0003 3.0003 0 0 0-3-3z" style="opacity:.2"/>
  <path d="m14 2a3.0003 3.0003 0 0 0-3 3v1h-4a3.0003 3.0003 0 0 0-3 3v4a3.0003 3.0003 0 0 0 3 3h0.1738281a3.0003 3.0003 0 0 0-0.1738281 1v10a3.0003 3.0003 0 0 0 3 3h4a3.0003 3.0003 0 0 0 2-0.767578 3.0003 3.0003 0 0 0 2 0.767578h4a3.0003 3.0003 0 0 0 3-3v-10a3.0003 3.0003 0 0 0-0.175781-1h0.175781a3.0003 3.0003 0 0 0 3-3v-4a3.0003 3.0003 0 0 0-3-3h-4v-1a3.0003 3.0003 0 0 0-3-3z" style="fill:#617573"/>
  <path d="m14 6v4h-7v4h7v4h-4v10h4v-6h4v6h4v-10h-4v-4h7v-4h-7v-4z" style="opacity:.2"/>
  <path d="m14 5v4h-7v4h7v4h-4v10h4v-6h4v6h4v-10h-4v-4h7v-4h-7v-4z" style="fill:#e81a2b"/>
  <path d="m14 2a3.0003 3.0003 0 0 0-3 3v0.7675781a3.0003 3.0003 0 0 1 3-3h4a3.0003 3.0003 0 0 1 3 3v-0.7675781a3.0003 3.0003 0 0 0-3-3zm-7 4a3.0003 3.0003 0 0 0-3 3v0.7675781a3.0003 3.0003 0 0 1 3-3h4v-0.7675781zm14 0v0.7675781h4a3.0003 3.0003 0 0 1 3 3v-0.7675781a3.0003 3.0003 0 0 0-3-3zm-13.988281 10.767578a3.0003 3.0003 0 0 0-0.0117188 0.232422v0.767578a3.0003 3.0003 0 0 1 0.1738281-1zm17.8125 0a3.0003 3.0003 0 0 1 0.175781 1v-0.767578a3.0003 3.0003 0 0 0-0.01172-0.232422z" style="fill:#ffffff;opacity:.2"/>
  <path d="m14 5v1h4v-1zm-7 4v1h7v-1zm11 0v1h7v-1zm-8 8v1h4v-1zm8 0v1h4v-1z" style="fill:#ffffff;opacity:.2"/>
 </g>
</svg>

<svg xmlns="http://www.w3.org/2000/svg" width="32" height="32" version="1.1">
 <path style="opacity:0.2" d="m 14,2.767578 a 3.0003,3.0003 0 0 0 -3,3 v 1 H 7 a 3.0003,3.0003 0 0 0 -3,3 v 4 a 3.0003,3.0003 0 0 0 3,3 H 7.1738281 A 3.0003,3.0003 0 0 0 7,17.767578 v 10 a 3.0003,3.0003 0 0 0 3,3 h 4 A 3.0003,3.0003 0 0 0 16,30 a 3.0003,3.0003 0 0 0 2,0.767578 h 4 a 3.0003,3.0003 0 0 0 3,-3 v -10 a 3.0003,3.0003 0 0 0 -0.175781,-1 H 25 a 3.0003,3.0003 0 0 0 3,-3 v -4 a 3.0003,3.0003 0 0 0 -3,-3 h -4 v -1 a 3.0003,3.0003 0 0 0 -3,-3 z"/>
 <path style="fill:#556765" d="M 14,2 A 3.0003,3.0003 0 0 0 11,5 V 6 H 7 A 3.0003,3.0003 0 0 0 4,9 v 4 a 3.0003,3.0003 0 0 0 3,3 H 7.1738281 A 3.0003,3.0003 0 0 0 7,17 v 10 a 3.0003,3.0003 0 0 0 3,3 h 4 A 3.0003,3.0003 0 0 0 16,29.232422 3.0003,3.0003 0 0 0 18,30 h 4 a 3.0003,3.0003 0 0 0 3,-3 V 17 A 3.0003,3.0003 0 0 0 24.824219,16 H 25 a 3.0003,3.0003 0 0 0 3,-3 V 9 A 3.0003,3.0003 0 0 0 25,6 H 21 V 5 A 3.0003,3.0003 0 0 0 18,2 Z"/>
 <path style="opacity:0.2" d="m 14,6 v 4 H 7 v 4 h 7 v 4 h -4 v 10 h 4 v -6 h 4 v 6 h 4 V 18 h -4 v -4 h 7 V 10 H 18 V 6 Z"/>
 <path style="fill:#eb3a49" d="M 14,5 V 9 H 7 v 4 h 7 v 4 h -4 v 10 h 4 v -6 h 4 v 6 h 4 V 17 h -4 v -4 h 7 V 9 H 18 V 5 Z"/>
 <path style="opacity:0.1;fill:#ffffff" d="m 14,2 a 3.0003,3.0003 0 0 0 -3,3 v 0.7675781 a 3.0003,3.0003 0 0 1 3,-3 h 4 a 3.0003,3.0003 0 0 1 3,3 V 5 A 3.0003,3.0003 0 0 0 18,2 Z M 7,6 A 3.0003,3.0003 0 0 0 4,9 v 0.7675781 a 3.0003,3.0003 0 0 1 3,-3 h 4 V 6 Z m 14,0 v 0.7675781 h 4 a 3.0003,3.0003 0 0 1 3,3 V 9 A 3.0003,3.0003 0 0 0 25,6 Z M 7.011719,16.767578 A 3.0003,3.0003 0 0 0 7.0000002,17 v 0.767578 a 3.0003,3.0003 0 0 1 0.1738281,-1 z m 17.8125,0 a 3.0003,3.0003 0 0 1 0.175781,1 V 17 a 3.0003,3.0003 0 0 0 -0.01172,-0.232422 z"/>
 <path style="opacity:0.2;fill:#ffffff" d="m 14,5 v 1 h 4 V 5 Z M 7,9 v 1 h 7 V 9 Z m 11,0 v 1 h 7 V 9 Z m -8,8 v 1 h 4 v -1 z m 8,0 v 1 h 4 v -1 z"/>
</svg>
